X:1
T:Kabul, 87.87 D
T:Kabul, 87.87 D
T:Hubert Platt Main, 1884
T:Public Domain Courtesy of the Cyber Hymnal™
C:Hubert Platt Main, 1884
Z:Public Domain
Z:Courtesy of the Cyber Hymnal™
%%score ( 1 2 ) ( 3 4 )
L:1/8
Q:1/4=94
M:3/4
K:D
V:1 treble 
V:2 treble 
V:3 bass 
V:4 bass 
V:1
 D>[DE] | [DF]3 [EG] [FA]>[Fd] | [Gd]2 [GB]2 [EA]>[CE] | [CE]3 [CB] [DA][EG] | [DF]4 D>[DE] | %5
 [DF]3 [EG] [FA]>[Fd] | [Gd]2 [DB]2 [DA][DG] | [DF]3 [DA] [CE][CF] | D4 [CE][CF] | %9
 [EG]3 [FA] [GB][Ec] | [Fd]2 [FA]2 [EA][EB] | [Ec]3 [Fd] [DB][Ec] | (z2 [DF])[EG] x2 | %13
 [FA]2 [Fd]2 [Ge][Fd] | [Ac]2 [GB]2 [DA][DG] | [DF]2 [DA]2 [CE][CF] | D4 |] %17
V:2
 D3/2 x/ | x6 | x6 | x6 | x4 D3/2 x/ | x6 | x6 | x6 | D4 x2 | x6 | x6 | x6 | [CA]4 G2 | x6 | x6 | %15
 x6 | D4 |] %17
V:3
 [D,F,]>[D,G,] | [D,A,]3 [D,A,] [D,D]>[D,=C] | [G,,B,]2 [G,,D]2 [A,,C]>[A,,A,] | %3
 [A,,A,]3 [A,,G,] [A,,F,][A,,A,] | [D,A,]4 [D,F,]>[D,G,] | [D,A,]3 [D,A,] [D,D]>[D,=C] | %6
 [G,,B,]2 [G,,D]2 [G,,C][G,,B,] | [A,,A,]3 [A,,F,] [A,,G,][A,,A,] | [D,F,]4 [A,,A,][A,,A,] | %9
 [A,,A,]3 [A,,A,] [A,,A,][A,,A,] | [D,A,]2 [D,D]2 [C,A,][E,^G,] | A,3 [D,A,] [E,^G,][E,G,] | %12
 [A,,A,]4 [D,A,][D,A,] | [D,D]2 [D,A,]2 [C,A,][D,A,] | [G,,B,]2 [G,,D]2 [G,,C][G,,B,] | %15
 [A,,A,]2 [A,,F,]2 [A,,G,][A,,A,] | [D,F,]4 |] %17
V:4
 x2 | x6 | x6 | x6 | x6 | x6 | x6 | x6 | x6 | x6 | x6 | A,3 x3 | x6 | x6 | x6 | x6 | x4 |] %17

